Otagle3/Assets/ikonySvG/KanwaZIkonami.svg

<?xml version="1.0" encoding="UTF-8" standalone="no"?>
<svg
   xmlns:osb="http://www.openswatchbook.org/uri/2009/osb"
   xmlns:dc="http://purl.org/dc/elements/1.1/"
   xmlns:cc="http://creativecommons.org/ns#"
   xmlns:rdf="http://www.w3.org/1999/02/22-rdf-syntax-ns#"
   xmlns:svg="http://www.w3.org/2000/svg"
   xmlns="http://www.w3.org/2000/svg"
   id="svg47"
   version="1.1"
   viewBox="0 0 52.758294 52.758296"
   height="199.40143"
   width="199.40143">
  <defs
     id="defs42">
    <pattern
       id="EMFhbasepattern"
       patternUnits="userSpaceOnUse"
       width="6"
       height="6"
       x="0"
       y="0" />
    <marker
       style="overflow:visible"
       id="Arrow1Mend-5-0"
       refX="0"
       refY="0"
       orient="auto">
      <path
         transform="matrix(-0.4,0,0,-0.4,-4,0)"
         style="fill:#000000;fill-opacity:1;fill-rule:evenodd;stroke:#000000;stroke-width:1.00000003pt;stroke-opacity:1"
         d="M 0,0 5,-5 -12.5,0 5,5 Z"
         id="path1146-3-3" />
    </marker>
    <marker
       style="overflow:visible"
       id="Arrow1Mend-5-3"
       refX="0"
       refY="0"
       orient="auto">
      <path
         transform="matrix(-0.4,0,0,-0.4,-4,0)"
         style="fill:#000000;fill-opacity:1;fill-rule:evenodd;stroke:#000000;stroke-width:1.00000003pt;stroke-opacity:1"
         d="M 0,0 5,-5 -12.5,0 5,5 Z"
         id="path1146-3-9" />
    </marker>
    <marker
       orient="auto"
       refY="0"
       refX="0"
       id="Arrow1Mend-5-0-4"
       style="overflow:visible">
      <path
         id="path1146-3-3-8"
         d="M 0,0 5,-5 -12.5,0 5,5 Z"
         style="fill:#ffffff;fill-opacity:1;fill-rule:evenodd;stroke:#ffffff;stroke-width:1.00000003pt;stroke-opacity:1"
         transform="matrix(-0.4,0,0,-0.4,-4,0)" />
    </marker>
    <marker
       orient="auto"
       refY="0"
       refX="0"
       id="Arrow1Mend-5-3-8"
       style="overflow:visible">
      <path
         id="path1146-3-9-5"
         d="M 0,0 5,-5 -12.5,0 5,5 Z"
         style="fill:#ffffff;fill-opacity:1;fill-rule:evenodd;stroke:#ffffff;stroke-width:1.00000003pt;stroke-opacity:1"
         transform="matrix(-0.4,0,0,-0.4,-4,0)" />
    </marker>
    <marker
       style="overflow:visible"
       id="Arrow1Mend"
       refX="0"
       refY="0"
       orient="auto">
      <path
         transform="matrix(-0.4,0,0,-0.4,-4,0)"
         style="fill:#000000;fill-opacity:1;fill-rule:evenodd;stroke:#000000;stroke-width:1.00000003pt;stroke-opacity:1"
         d="M 0,0 5,-5 -12.5,0 5,5 Z"
         id="path1146" />
    </marker>
    <marker
       orient="auto"
       refY="0"
       refX="0"
       id="Arrow1Mend-5"
       style="overflow:visible">
      <path
         id="path1146-3"
         d="M 0,0 5,-5 -12.5,0 5,5 Z"
         style="fill:#ffffff;fill-opacity:1;fill-rule:evenodd;stroke:#ffffff;stroke-width:1.00000003pt;stroke-opacity:1"
         transform="matrix(-0.4,0,0,-0.4,-4,0)" />
    </marker>
    <marker
       style="overflow:visible"
       id="Arrow1Mstart"
       refX="0"
       refY="0"
       orient="auto">
      <path
         transform="matrix(0.4,0,0,0.4,4,0)"
         style="fill:#000000;fill-opacity:1;fill-rule:evenodd;stroke:#000000;stroke-width:1.00000003pt;stroke-opacity:1"
         d="M 0,0 5,-5 -12.5,0 5,5 Z"
         id="path1143" />
    </marker>
    <marker
       orient="auto"
       refY="0"
       refX="0"
       id="Arrow1Mstart-1"
       style="overflow:visible">
      <path
         id="path1143-7"
         d="M 0,0 5,-5 -12.5,0 5,5 Z"
         style="fill:#ffffff;fill-opacity:1;fill-rule:evenodd;stroke:#ffffff;stroke-width:1.00000003pt;stroke-opacity:1"
         transform="matrix(0.4,0,0,0.4,4,0)" />
    </marker>
    <marker
       style="overflow:visible"
       id="Arrow1Lend"
       refX="0"
       refY="0"
       orient="auto">
      <path
         transform="matrix(-0.8,0,0,-0.8,-10,0)"
         style="fill:#000000;fill-opacity:1;fill-rule:evenodd;stroke:#000000;stroke-width:1.00000003pt;stroke-opacity:1"
         d="M 0,0 5,-5 -12.5,0 5,5 Z"
         id="path1140" />
    </marker>
    <marker
       style="overflow:visible"
       id="Arrow1Lstart"
       refX="0"
       refY="0"
       orient="auto">
      <path
         transform="matrix(0.8,0,0,0.8,10,0)"
         style="fill:#000000;fill-opacity:1;fill-rule:evenodd;stroke:#000000;stroke-width:1.00000003pt;stroke-opacity:1"
         d="M 0,0 5,-5 -12.5,0 5,5 Z"
         id="path1137" />
    </marker>
    <marker
       orient="auto"
       refY="0"
       refX="0"
       id="Arrow1Lend-5"
       style="overflow:visible">
      <path
         id="path1140-4"
         d="M 0,0 5,-5 -12.5,0 5,5 Z"
         style="fill:#ffffff;fill-opacity:1;fill-rule:evenodd;stroke:#ffffff;stroke-width:1.00000003pt;stroke-opacity:1"
         transform="matrix(-0.8,0,0,-0.8,-10,0)" />
    </marker>
    <marker
       orient="auto"
       refY="0"
       refX="0"
       id="Arrow1Lstart-93"
       style="overflow:visible">
      <path
         id="path1137-7"
         d="M 0,0 5,-5 -12.5,0 5,5 Z"
         style="fill:#ffffff;fill-opacity:1;fill-rule:evenodd;stroke:#ffffff;stroke-width:1.00000003pt;stroke-opacity:1"
         transform="matrix(0.8,0,0,0.8,10,0)" />
    </marker>
    <linearGradient
       id="linearGradient4460"
       osb:paint="solid">
      <stop
         style="stop-color:#db3b3b;stop-opacity:1;"
         offset="0"
         id="stop4458" />
    </linearGradient>
  </defs>
  <metadata
     id="metadata45">
    <rdf:RDF>
      <cc:Work
         rdf:about="">
        <dc:format>image/svg+xml</dc:format>
        <dc:type
           rdf:resource="http://purl.org/dc/dcmitype/StillImage" />
        <dc:title></dc:title>
      </cc:Work>
    </rdf:RDF>
  </metadata>
  <g
     id="g8556"
     transform="translate(49.836509,-375.23204)">
    <g
       id="g5305">
      <g
         id="g5314"
         transform="translate(-1460.5579,407.08821)">
        <rect
           style="fill:#db3b3b;fill-opacity:1;stroke:#000000;stroke-width:0.50015903;stroke-linecap:round;stroke-miterlimit:4;stroke-dasharray:none;stroke-opacity:1;paint-order:fill markers stroke"
           id="rect833-4-4-4-3-7-6-0-7-8"
           width="52.950603"
           height="52.916664"
           x="1410.9691"
           y="-31.749987" />
        <text
           transform="scale(1.0003206,0.9996795)"
           xml:space="preserve"
           style="font-size:6.35203981px;line-height:1.25;font-family:voestalpine;-inkscape-font-specification:voestalpine;letter-spacing:0px;word-spacing:0px;fill:#ffffff;fill-opacity:1;stroke-width:0.26466799"
           x="1436.861"
           y="19.736391"
           id="text983-1-5-6-98-2-6-5-2-3"><tspan
             id="tspan2495-3-9"
             x="1436.861"
             y="19.736391"
             style="font-size:6.35203981px;text-align:center;text-anchor:middle;fill:#ffffff;fill-opacity:1;stroke-width:0.26466799">Kanwa z ikonami</tspan></text>
        <g
           transform="matrix(0.32269855,0,0,0.32249173,1421.3634,-28.499599)"
           id="g2711"
           style="fill:#ffffff;fill-opacity:1">
          <path
             id="path2697"
             overflow="visible"
             display="inline"
             visibility="visible"
             marker="none"
             d="m 49.866897,5.04293 a 2.9926849,2.9967896 0 0 0 -2.961215,3.05891 v 2.99649 H 12.991977 a 2.9926849,2.9967896 0 0 0 -0.311706,0 2.9964417,3.0005515 0 1 0 0.311706,5.99298 h 0.997462 v 37.95561 h -0.997462 a 2.9926849,2.9967896 0 0 0 -0.311706,0 2.9964417,3.0005515 0 1 0 0.311706,5.9929 h 22.31821 l -10.099301,22.7546 a 3.0003503,3.0044655 0 1 0 5.48604,2.4346 l 11.159105,-25.1892 h 5.049651 v 30.9638 a 2.9926849,2.9967896 0 1 0 5.984771,0 v -30.9638 h 5.049651 l 11.159105,25.1892 a 3.0003503,3.0044655 0 0 0 5.486041,-2.4346 L 64.485948,61.03982 h 22.31821 a 2.9926849,2.9967896 0 1 0 0,-5.9929 H 85.806696 V 17.09131 h 0.997462 a 2.9926849,2.9967896 0 1 0 0,-5.99298 H 52.890453 V 8.10184 A 2.9926849,2.9967896 0 0 0 49.866897,5.04293 Z M 19.974211,17.09131 H 79.821925 V 55.04692 H 19.974211 Z"
             style="color:#000000;text-indent:0;text-transform:none;direction:ltr;baseline-shift:baseline;display:inline;overflow:visible;visibility:visible;fill:#ffffff;fill-opacity:1;stroke:none;enable-background:accumulate" />
        </g>
        <g
           style="fill:#ffffff;fill-opacity:1;stroke:#ffffff;stroke-opacity:1"
           transform="matrix(0.32110085,0,0,0.32110085,1076.4339,-0.77457733)"
           id="g2436-6">
          <circle
             style="fill:#ffffff;fill-opacity:1;stroke:#ffffff;stroke-width:2.51011992;stroke-linecap:round;stroke-miterlimit:4;stroke-dasharray:none;stroke-opacity:1;paint-order:fill markers stroke"
             id="path2414-6"
             cx="1114.6519"
             cy="-49.892857"
             r="5.7815461" />
          <circle
             r="5.7815461"
             cy="-49.892857"
             cx="1133.1726"
             id="path2414-5-7"
             style="fill:#ffffff;fill-opacity:1;stroke:#ffffff;stroke-width:2.51011992;stroke-linecap:round;stroke-miterlimit:4;stroke-dasharray:none;stroke-opacity:1;paint-order:fill markers stroke" />
          <path
             style="fill:#ffffff;fill-opacity:1;stroke:#ffffff;stroke-width:1.16499996;stroke-linecap:butt;stroke-linejoin:miter;stroke-miterlimit:4;stroke-dasharray:none;stroke-opacity:1"
             d="m 1103.6905,-49.892857 h 41.1994"
             id="path2431-7" />
        </g>
      </g>
    </g>
  </g>
</svg>

<svg id="SVGRoot" width="206px" height="206px" version="1.1" viewBox="0 0 206 206" xmlns="http://www.w3.org/2000/svg">
 <g transform="matrix(3.7795 0 0 3.7795 -1795.2 2502.6)">
  <flowRoot fill="black" font-family="sans-serif" font-size="40px" letter-spacing="0px" word-spacing="0px" style="line-height:1.25" xml:space="preserve"><flowRegion><rect x="-392.69" y="-63.57" width="758.02" height="397.52"/></flowRegion><flowPara/></flowRoot>
  <flowRoot fill="black" font-family="sans-serif" font-size="40px" letter-spacing="0px" word-spacing="0px" style="line-height:1.25" xml:space="preserve"><flowRegion><rect x="-251.87" y="-84.492" width="624.44" height="455.45"/></flowRegion><flowPara/></flowRoot>
  <flowRoot fill="black" font-family="sans-serif" font-size="40px" letter-spacing="0px" word-spacing="0px" style="line-height:1.25" xml:space="preserve"><flowRegion><rect x="-202.78" y="-50.695" width="473.96" height="281.64"/></flowRegion><flowPara/></flowRoot>
  <flowRoot fill="black" font-family="sans-serif" font-size="40px" letter-spacing="0px" word-spacing="0px" style="line-height:1.25" xml:space="preserve"><flowRegion><rect x="-86.906" y="-78.859" width="516.61" height="410.39"/></flowRegion><flowPara/></flowRoot>
  <flowRoot fill="black" font-family="sans-serif" font-size="40px" letter-spacing="0px" word-spacing="0px" style="line-height:1.25" xml:space="preserve"><flowRegion><rect x="-81.273" y="-32.188" width="309" height="322.68"/></flowRegion><flowPara/></flowRoot>
  <flowRoot fill="black" font-family="sans-serif" font-size="40px" letter-spacing="0px" word-spacing="0px" style="line-height:1.25" xml:space="preserve"><flowRegion><rect x="-90.93" y="-68.398" width="392.69" height="252.67"/></flowRegion><flowPara/></flowRoot>
  <g transform="translate(675.17 -.21291)">
   <flowRoot fill="black" font-family="sans-serif" font-size="40px" letter-spacing="0px" word-spacing="0px" style="line-height:1.25" xml:space="preserve"><flowRegion><rect x="-100.59" y="-53.109" width="462.7" height="369.35"/></flowRegion><flowPara/></flowRoot>
   <g transform="translate(57.194 .21291)">
    <flowRoot fill="black" font-family="sans-serif" font-size="40px" letter-spacing="0px" word-spacing="0px" style="line-height:1.25" xml:space="preserve"><flowRegion><rect x="-329.12" y="-12.07" width="696.05" height="259.91"/></flowRegion><flowPara/></flowRoot>
    <g transform="translate(-1495.1 -629.38)">
     <flowRoot fill="black" font-family="sans-serif" font-size="40px" letter-spacing="0px" word-spacing="0px" style="line-height:1.25" xml:space="preserve"><flowRegion><rect x="-306.59" y="-111.05" width="206" height="51.5"/></flowRegion><flowPara/></flowRoot>
     <g transform="translate(-172.09 .21291)">
      <rect x="1411" y="-31.75" width="52.951" height="52.917" fill="#db3b3b" stroke="#000" stroke-linecap="round" stroke-width=".50016" style="paint-order:fill markers stroke"/>
      <text transform="scale(1.0003 .99968)" x="1436.861" y="17.232069" fill="#ffffff" font-family="sans-serif" font-size="6.352px" letter-spacing="0px" stroke-width=".26467" word-spacing="0px" style="line-height:1.25" xml:space="preserve"><tspan x="1436.861" y="17.232069" fill="#ffffff" font-family="sans-serif" font-size="4.9389px" stroke-width=".26467" text-align="center" text-anchor="middle">Kanwa z ikonami</tspan></text>
      <g transform="matrix(.3227 0 0 .32249 1421.4 -28.5)" fill="#fff">
       <path d="m49.867 5.0429a2.9927 2.9968 0 00-2.9612 3.0589v2.9965h-33.914a2.9927 2.9968 0 00-.31171 0 2.9964 3.0006 0 10.31171 5.993h.99746v37.956h-.99746a2.9927 2.9968 0 00-.31171 0 2.9964 3.0006 0 10.31171 5.9929h22.318l-10.099 22.755a3.0004 3.0045 0 105.486 2.4346l11.159-25.189h5.0497v30.964a2.9927 2.9968 0 105.9848 0v-30.964h5.0497l11.159 25.189a3.0004 3.0045 0 005.486-2.4346l-10.099-22.755h22.318a2.9927 2.9968 0 100-5.9929h-.99746v-37.956h.99746a2.9927 2.9968 0 100-5.993h-33.914v-2.9965a2.9927 2.9968 0 00-3.0236-3.0589zm-29.893 12.048h59.848v37.956h-59.848z" color="#000000" fill="#fff" overflow="visible" style="text-indent:0;text-transform:none"/>
      </g>
      <g transform="matrix(.3211 0 0 .3211 1076.4 -.77458)" fill="#fff" stroke="#fff">
       <circle cx="1114.7" cy="-49.893" r="5.7815" stroke-linecap="round" stroke-width="2.5101" style="paint-order:fill markers stroke"/>
       <circle cx="1133.2" cy="-49.893" r="5.7815" stroke-linecap="round" stroke-width="2.5101" style="paint-order:fill markers stroke"/>
       <path d="m1103.7-49.893h41.199" stroke-width="1.165"/>
      </g>
     </g>
    </g>
   </g>
  </g>
 </g>
</svg>
